X:148
T:The Humors of Ballylaughlin
S:Chuck
L:1/8
R:Jig
M:6/8
K:Dmix
A3 AGE | GED D3 | c3 ded | cAG FED |
A3 AGE | G3 cGE | D3 DFA | D3 D3 :|
|: c3 cAB | cAG FGA | ded ded | dAG FGA |
cBc dcB | ABG FGE | D3 DFA | D3 D3 :|
|: fdd gdd | fdd ged | cde ged | cde g3 |
fdd gdd | fdd ged | cde gag | fdc d2e :|
|: A3 A2G | F3 GED | E3 EFD | EFD EFG |
A3 dAG | F3 GEA D3 DFA | D3 D3 :|

%%newpage
%%scale .7
%%staffsep 40

